X:1
T:Title
%%score { 1 | ( 2 3 ) }
L:1/8
M:6/8
K:Ab
V:1 treble nm="Grand Piano"
V:2 bass 
V:3 bass 
V:1
 z3 z2[Q:1/4=100] [CE] | [CA]2 [CA] [DB][Ec][DB] | [CA]6 | [FA]3 [EG]2 [DF] | [CE]3- [CE]2 E | %5
 B2 B Bcd | [Ec]6 | [EB]3 [=DA]2 [DF] | E3- E2 E | d2 d dcB | [Ec]2 [Ec] [Ec][DB][CA] | B2 B BAG | %12
 [CA]2 [DB] [Ec]2 [CE] | [CA]2 [CA] [CA][DB][Ec] | B2 d c3 | [FB]3 [EA]2 [DG] | %16
[M:5/8] [CA]-[CA]- [CA]3 |] %17
V:2
 z3 z2 [A,,A,] | [A,,A,]2 [A,,A,] [E,G,]2 [E,G,] | [A,,A,]6 | [D,A,]3 [D,A,]2 [D,A,] | %4
 [A,,A,]3- [A,,A,]2 [E,G,] | [E,G,E]2 [E,G,E] [E,E]-[E,A,E][E,B,E] | [A,,A,]6 | %7
 [B,,G,]3 [B,,F,]2 [B,,A,] | [E,G,]3- [E,G,]2 [E,G,] | z3 .B,3 | %10
 [A,,A,]2 [A,,A,] [A,,A,]2 [A,,A,] | [E,DE]2 [E,DE] DC[E,B,D] | [A,,A,]2 [A,,A,] [A,,A,]2 [A,,A,] | %13
 [A,,E,]2 [A,,E,] [A,,A,]2 [A,,A,] | [E,G,E]2 [E,B,E] [A,E]3 | [D,D]3 [E,C]2 [E,B,] | %16
[M:5/8] [A,,A,]-[A,,A,]- [A,,A,]3 |] %17
V:3
 x6 | x6 | x6 | x6 | x6 | z3 .G,3 | x6 | x6 | x6 | [E,B,E]2 [E,B,E] [E,E]-[E,A,E][E,G,E] | x6 | %11
 z3 .[E,E]3 | x6 | x6 | x6 | x6 |[M:5/8] x5 |] %17

